X:3302
L:1/8
Q:3/8=120
M:6/8
K:Amix
 f | e2 A c2 A | c/d/eA Tc2 A | dBG GBd | gdB G2 f | e2 A c2 A | c/d/eA Tc2 A | ece eca | ecA A2 :| 
 B | Ace aeg | fdf edc | B/c/dB GBd | gdB G2 |1 B | Ace aeg | fdf ecA | cde eca | ecA A2 :|2 f | 
 e2 A c2 A | c/d/eA Tc2 A | c/d/ee eca | ecA A2 |]

